svg/ricky/sitting/emotion/rofl.svg

<?xml version="1.0" encoding="UTF-8"?>
<svg width="500px" height="600px" viewBox="0 0 500 600" version="1.1" xmlns="http://www.w3.org/2000/svg" xmlns:xlink="http://www.w3.org/1999/xlink">
    <title>rofl</title>
    <defs>
        <polygon id="path-1" points="0.000458924701 0.454 182.161518 0.454 182.161518 198.107401 0.000458924701 198.107401"></polygon>
    </defs>
    <g id="rofl" stroke="none" stroke-width="1" fill="none" fill-rule="evenodd">
        <g transform="translate(169.000000, 58.000000)">
            <g id="face" transform="translate(0.000000, 0.546000)">
                <mask id="mask-2" fill="white">
                    <use xlink:href="#path-1"></use>
                </mask>
                <g id="Clip-11"></g>
                <path d="M172.4951,104.5349 C172.2261,106.0479 171.9271,107.5579 171.6161,109.0679 C171.5471,109.3019 171.4961,109.5399 171.4661,109.7829 C170.8121,112.8959 170.1031,116.0029 169.4091,119.0969 C169.0261,120.8039 168.5471,123.0969 166.9181,124.0889 C165.9881,124.6539 163.3321,124.4499 163.5591,122.8539 C163.6081,122.5109 163.4931,122.2269 163.3071,122.0129 C163.4391,113.2759 162.1381,104.6229 160.4861,95.9929 C161.0541,95.9069 161.5731,95.5839 161.9291,95.0489 C161.9981,94.9429 162.0681,94.8389 162.1411,94.7359 C162.1521,94.7209 162.1861,94.6759 162.2181,94.6339 C162.2661,94.5759 162.3241,94.5049 162.3411,94.4859 C162.4061,94.4099 162.4731,94.3349 162.5401,94.2599 C162.8651,93.9039 163.2241,93.5969 163.5811,93.2759 C163.5861,93.2709 163.5851,93.2709 163.5901,93.2669 C163.5921,93.2659 163.5921,93.2659 163.5941,93.2639 C163.6761,93.2059 163.7571,93.1459 163.8401,93.0899 C164.0261,92.9609 164.2181,92.8389 164.4121,92.7219 C164.6071,92.6049 164.8061,92.4949 165.0081,92.3909 C165.1201,92.3349 165.2331,92.2789 165.3481,92.2249 C165.3921,92.2039 165.4381,92.1819 165.4851,92.1629 C165.6201,92.1019 165.5761,92.1199 165.3541,92.2149 C165.4441,92.1019 165.8651,92.0199 165.9931,91.9769 C166.2081,91.9049 166.4261,91.8399 166.6451,91.7819 C166.8641,91.7229 167.0861,91.6729 167.3081,91.6299 C167.4071,91.6099 167.5071,91.5939 167.6061,91.5759 C167.6031,91.5749 167.5991,91.5759 167.5981,91.5739 C167.5981,91.5749 167.6041,91.5749 167.6071,91.5759 C167.6321,91.5719 167.6551,91.5669 167.6801,91.5629 C167.9671,91.5139 167.7131,91.5819 167.6241,91.5799 C167.6891,91.5879 167.8741,91.5699 168.0451,91.5509 C168.6461,91.7489 169.2181,92.0359 169.7081,92.4339 C173.2701,95.3349 173.2231,100.4239 172.4951,104.5349 M161.2831,124.2969 C161.2001,125.8999 161.0471,127.5069 160.8571,129.1099 C160.6391,129.7179 160.5661,130.3769 160.6211,131.0249 C160.3781,132.6879 160.0411,134.3349 159.6641,135.9719 C158.3241,140.1539 156.4061,144.1129 153.9711,147.7609 C153.9631,147.7519 153.9551,147.7429 153.9461,147.7339 C151.0921,150.9959 147.7291,153.8309 144.2551,156.4329 C137.7351,161.3179 130.9761,165.9069 124.2101,170.4389 C120.2011,173.1239 116.1631,175.7629 112.0981,178.3589 C111.8861,178.4949 111.7571,178.6709 111.6891,178.8589 C110.3641,179.6869 108.9971,180.4379 107.5411,181.0269 C102.1041,183.2239 96.3291,182.2229 90.9911,180.2489 C85.9741,178.3929 81.1671,175.8689 76.4031,173.4479 C67.8811,169.1179 59.4001,164.2839 52.4831,157.5979 C45.3161,150.6689 40.7251,141.9399 39.1761,132.0819 C37.5681,121.8619 38.9211,111.3819 40.3221,101.2219 C40.9891,96.3799 41.6921,91.5179 42.2201,86.6419 C47.0181,89.1969 52.1331,89.7649 55.9271,83.8619 C57.7011,81.1019 58.8521,78.0019 59.5441,74.7689 C62.2881,76.5689 65.3011,77.5269 68.6171,76.6229 C71.8371,75.7459 74.3911,73.2299 75.8491,70.3059 C77.1101,67.7789 76.8531,64.4989 78.1591,62.1129 C81.2191,63.8319 84.6011,64.9109 88.0671,65.0389 C96.0071,65.3319 100.3841,59.3059 102.8571,52.5159 C106.7651,54.5589 111.7011,54.5839 115.5461,52.3169 C115.7961,52.9449 116.0841,53.5579 116.4061,54.1559 C117.8981,58.6389 121.8501,62.1959 126.4201,63.5419 C129.4091,64.4219 132.5621,64.2709 135.4061,62.9849 C135.4711,62.9559 135.5381,62.9189 135.6031,62.8879 C135.5601,68.8059 136.8211,74.5629 141.2251,79.1479 C145.1591,83.2439 150.8261,84.8759 156.0271,83.8139 C156.0431,83.8949 156.0581,83.9769 156.0741,84.0579 C156.0781,84.1839 156.0861,84.3089 156.0901,84.4349 C156.1191,85.3179 156.3291,86.1559 156.6541,86.9399 C157.0131,88.7059 157.3731,90.4719 157.7281,92.2349 C159.8491,102.7669 161.8401,113.5059 161.2831,124.2969 M102.5171,191.1329 C100.9611,193.6609 98.6391,196.3529 95.3941,196.0899 C92.2731,195.8359 90.5791,192.7119 89.3451,190.1259 C89.4201,189.9919 89.4731,189.8389 89.4731,189.6469 L89.4731,181.8069 C92.8151,183.1189 96.2741,184.1039 99.8711,184.2859 C100.7211,184.3289 101.5471,184.2939 102.3631,184.2239 L102.3631,190.6399 C102.3631,190.8209 102.4281,190.9839 102.5171,191.1329 M36.5171,123.3419 C36.4691,123.3649 36.4211,123.3899 36.3851,123.4309 C36.2991,123.5239 36.2271,123.6529 36.2381,123.7839 C36.2411,123.8219 36.2361,123.8589 36.2351,123.8969 C36.2271,123.9329 36.2181,123.9689 36.2061,124.0039 C36.1901,124.0339 36.1741,124.0619 36.1551,124.0899 C36.1181,124.1289 36.0801,124.1679 36.0421,124.2059 C35.9611,124.2879 35.9151,124.4009 35.9041,124.5159 C35.8991,124.5159 35.8961,124.5149 35.8911,124.5139 C35.6331,124.3789 35.3141,124.3529 34.9811,124.5319 C33.1071,125.5439 31.2871,123.8279 30.1451,122.4669 C28.8021,120.8639 27.8761,118.8899 26.9271,117.0419 C24.9471,113.1829 23.2241,108.8799 23.8311,104.4589 C24.3061,100.9989 26.3021,97.2649 29.9331,96.3759 C32.8951,95.6509 36.6421,96.8909 37.5941,100.0199 C37.7201,100.4329 38.0251,100.6349 38.3561,100.6899 C37.2921,108.2229 36.3861,115.7639 36.5171,123.3419 M99.1861,3.8299 C97.7151,3.2469 96.1891,2.8029 94.6211,2.5069 C96.2191,2.6429 97.7661,3.1049 99.1861,3.8299 M182.0231,100.6849 C181.8711,99.5389 181.5491,98.4689 181.2441,97.3579 C180.8491,95.9199 181.1411,94.7439 181.4611,93.3279 C182.5081,88.6999 181.0171,83.7939 177.5941,80.5159 C180.6801,73.2679 178.8771,64.3449 173.0261,58.9869 C173.0781,57.6219 172.6671,56.4169 172.0161,55.3119 C171.5911,54.2519 170.9021,53.4059 170.0421,52.7819 C169.7541,52.4779 169.4601,52.1789 169.1621,51.8859 C169.0101,51.7369 168.8491,51.5889 168.6841,51.4379 C168.3391,48.5569 167.9761,45.6199 167.3031,42.8389 C167.2681,42.4049 167.2261,41.9719 167.1681,41.5389 C166.7261,38.2789 165.6731,34.4019 163.2751,31.9979 C161.6411,30.3569 158.9931,29.6469 156.9811,30.7429 C155.9231,28.1849 154.4301,25.7579 152.5491,23.7109 C151.5731,22.1759 150.3161,20.8309 148.6761,19.8189 C146.3261,18.3689 143.5991,18.2229 141.1571,18.9829 C140.6731,15.4699 138.3491,12.2779 134.8971,11.0209 C130.9131,9.5689 126.2501,11.2869 123.8141,14.6509 C121.5561,11.7759 118.9891,8.9399 115.4381,7.7799 C112.6981,6.8859 109.4351,7.1519 107.1321,8.9059 C107.0291,8.8079 106.9291,8.7039 106.8261,8.6099 C106.7511,8.5409 106.6691,8.4829 106.5931,8.4159 C104.1261,3.8709 99.3781,0.6849 94.1231,0.4659 C88.4861,0.2289 83.2191,3.5289 80.5491,8.3739 C76.7901,4.8589 70.7381,4.1579 66.2101,6.6229 C65.6161,6.9459 65.0601,7.3319 64.5381,7.7589 C63.9551,8.2339 63.4351,8.9799 62.7661,9.3249 C61.8281,9.8079 60.9341,9.0259 60.0931,8.6419 C59.3071,8.2849 58.4881,8.0099 57.6391,7.8499 C54.4171,7.2469 51.0171,8.0099 48.4661,10.0969 C46.2921,11.8749 44.9261,14.4959 44.5571,17.2559 C43.7051,18.3189 42.9841,19.4629 42.3831,20.6739 C38.1811,16.4309 30.0701,16.9059 26.9331,22.3049 C26.0241,23.8679 25.5991,25.6609 24.6981,27.2269 C24.3011,27.9179 23.8041,28.5729 23.0811,28.9489 C21.8831,29.5729 20.4451,29.3319 19.1511,29.2949 C15.1791,29.1789 12.1461,31.5749 10.8751,35.2979 C9.6241,38.9619 10.6841,42.6849 12.3671,46.0489 C12.6911,46.8599 13.0791,47.6459 13.5351,48.3999 C7.8161,50.4889 5.3271,58.4129 8.2561,63.6109 C8.2981,64.0829 8.3631,64.5519 8.4531,65.0149 C3.5581,66.7519 -0.1919,71.5249 0.0081,76.8859 C0.2091,82.3099 4.3151,86.9599 9.4431,88.2889 C4.5531,94.0439 6.4621,102.9229 10.1141,108.9789 C11.3121,110.9659 12.8261,112.6549 14.3191,114.4179 C16.1261,116.5509 17.0291,118.7769 17.7291,121.4559 C18.8911,125.9019 20.9641,129.7799 24.5651,132.7319 C28.3931,135.8689 33.2371,137.6469 38.2051,137.4259 C38.2451,137.4239 38.2721,137.4049 38.3091,137.3999 C39.9731,143.6499 42.8171,149.5049 47.0251,154.6379 C53.2301,162.2059 61.5791,167.7299 70.0891,172.3859 C74.4801,174.7879 78.9761,177.0039 83.4941,179.1609 C84.8321,179.7999 86.1911,180.4299 87.5681,181.0219 C87.5091,181.1459 87.4731,181.2899 87.4731,181.4579 L87.4731,189.2769 C87.2051,189.5649 87.0751,189.9859 87.2861,190.4329 C88.9071,193.8799 91.1411,197.7909 95.3941,198.0899 C99.5691,198.3829 102.6101,194.9449 104.5241,191.6759 C104.7901,191.2229 104.6531,190.7959 104.3631,190.5139 L104.3631,183.9459 C107.8281,183.2749 111.0151,181.6999 114.0421,179.6859 C113.9931,179.6509 113.9531,179.6029 113.9051,179.5649 C120.9491,175.0529 127.9131,170.4159 134.7811,165.6389 C141.0661,161.2679 147.6041,156.9679 153.0981,151.5959 C153.4861,151.2159 153.8411,150.8029 154.2151,150.4089 C154.4561,150.3649 154.6881,150.2359 154.8641,149.9889 C155.0941,149.6669 155.3111,149.3369 155.5331,149.0089 C155.5581,148.9809 155.5841,148.9569 155.6081,148.9299 C155.6031,148.9269 155.5981,148.9249 155.5931,148.9219 C157.8501,145.5669 159.6801,141.9399 161.0431,138.1349 C161.0971,138.1569 161.1531,138.1679 161.2061,138.1909 C161.3601,137.5979 161.4911,137.0009 161.6261,136.4039 C161.6791,136.2379 161.7381,136.0739 161.7891,135.9079 C161.8251,135.7889 161.8231,135.6829 161.8201,135.5779 C161.8271,135.5469 161.8361,135.5149 161.8421,135.4839 C161.9391,135.5259 162.0371,135.5679 162.1571,135.5799 C166.3061,135.9779 170.1371,134.0479 173.0911,131.2559 C176.1861,128.3299 179.1061,124.1069 179.6781,119.8079 C179.8121,118.7979 179.7931,117.7699 179.5531,116.7749 C179.2701,115.6029 178.3351,114.5099 178.6451,113.2689 C178.9011,112.2509 179.7281,111.3509 180.2241,110.4409 C180.7871,109.4089 181.2351,108.3019 181.5571,107.1719 C182.1531,105.0729 182.3081,102.8469 182.0231,100.6849" id="Fill-10" fill="#231F20" mask="url(#mask-2)"></path>
            </g>
            <g id="eyes" transform="translate(61.164728, 83.828107)" fill="#231F20">
                <path d="M30.4289724,14.459793 C24.3689724,11.850793 17.6199724,11.414793 11.2969724,13.344793 C10.0699724,13.719793 10.5929724,15.650793 11.8289724,15.273793 C16.5719724,13.824793 21.6379724,13.781793 26.3779724,15.130793 C22.5829724,16.008793 18.7699724,16.879793 15.0869724,18.109793 C11.0759724,19.449793 7.21197242,21.400793 4.45397242,24.689793 C3.63197242,25.670793 5.03997242,27.092793 5.86797242,26.104793 C8.58397242,22.865793 12.3839724,21.053793 16.3469724,19.801793 C20.8799724,18.369793 25.5749724,17.407793 30.1909724,16.287793 C30.9629724,16.100793 31.2379724,14.808793 30.4289724,14.459793" id="Fill-1"></path>
                <path d="M77.0500724,20.756693 C70.3350724,16.821693 62.4950724,15.045693 54.7490724,15.725693 C58.2390724,13.904693 62.0700724,12.788693 66.0050724,12.486693 C67.2800724,12.389693 67.2910724,10.389693 66.0050724,10.486693 C61.1270724,10.860693 56.4020724,12.339693 52.2020724,14.856693 C51.2140724,15.447693 51.9210724,16.885693 52.8740724,16.701693 C52.7650724,17.276693 53.0590724,17.897693 53.7920724,17.814693 C61.5190724,16.932693 69.3260724,18.549693 76.0400724,22.483693 C77.1540724,23.135693 78.1610724,21.406693 77.0500724,20.756693" id="Fill-3"></path>
                <path d="M13.7395724,0.899292994 C8.48557242,2.21929299 3.70057242,5.19129299 0.206572422,9.33229299 C-0.473427578,10.137293 0.685572422,11.308293 1.37057242,10.497293 C4.69657242,6.55529299 9.17457242,3.74529299 14.1765724,2.48729299 C15.2045724,2.22929299 14.7685724,0.640292994 13.7395724,0.899292994" id="Fill-15"></path>
                <path d="M76.7893724,4.56429299 C72.7183724,1.05629299 67.2563724,0.352292994 62.0853724,0.00229299429 C61.0273724,-0.0697070057 61.0323724,1.57729299 62.0853724,1.64829299 C66.7733724,1.96629299 71.9203724,2.53729299 75.6253724,5.72829299 C76.4253724,6.41729299 77.5953724,5.25629299 76.7893724,4.56429299" id="Fill-17"></path>
            </g>
            <path d="M126.3301,148.451 C126.2021,148.396 126.0551,148.365 125.8771,148.382 C108.7231,149.948 91.4841,150.472 74.2661,149.948 C74.2051,149.946 74.1601,149.97 74.1051,149.975 C72.6421,146.881 71.7641,143.552 71.8751,140.077 C72.8231,140.016 73.7301,140.186 74.6421,140.553 C74.6651,140.561 74.6841,140.556 74.7071,140.564 C74.8671,140.755 75.1071,140.886 75.4271,140.895 C93.0101,141.429 110.6141,140.636 128.0781,138.536 C127.6781,141.839 127.2211,145.219 126.3301,148.451 M109.6291,166.935 C106.9241,168.358 103.9881,169.434 100.9111,169.584 C98.1071,169.72 95.3381,169.149 92.7381,168.116 C91.5041,167.626 90.3181,167.026 89.1721,166.357 C97.1461,165.092 105.2201,164.598 113.2891,164.837 C112.0791,165.593 110.8501,166.294 109.6291,166.935 M129.6431,137.095 C129.5531,136.705 129.2601,136.397 128.7321,136.462 C111.0991,138.616 93.3181,139.43 75.5621,138.899 C75.4611,138.787 75.3371,138.69 75.1741,138.624 C73.7011,138.031 72.2031,137.936 70.6501,138.222 C70.1961,138.305 69.9491,138.772 69.9161,139.186 C69.3921,145.644 72.1621,151.778 75.9711,156.845 C79.7231,161.835 84.4911,166.38 90.1461,169.138 C95.9021,171.945 102.1311,172.367 108.0771,169.873 C111.1541,168.582 114.0281,166.788 116.7361,164.849 C119.2631,163.042 121.6501,161.014 123.5881,158.573 C128.2521,152.698 129.2771,145.194 130.1461,137.974 C130.2031,137.509 129.9681,137.218 129.6431,137.095" id="mouth" fill="#231F20"></path>
            <path d="M109.9219,126.1102 C109.8369,125.5772 109.1709,125.2802 108.6929,125.4122 C108.1229,125.5682 107.9079,126.1072 107.9929,126.6422 C108.3929,129.1482 106.3579,131.8442 103.8579,132.2002 C101.2339,132.5742 98.5349,130.3232 98.3519,127.7012 C98.2629,126.4232 96.2619,126.4142 96.3519,127.7012 C96.5589,130.6612 98.7459,133.2382 101.6099,134.0072 C104.5009,134.7842 107.4289,133.3602 108.9749,130.8752 C109.8669,129.4382 110.1869,127.7732 109.9219,126.1102" id="nose" fill="#231F20"></path>
        </g>
    </g>
</svg>

<svg width="500" height="600" xmlns="http://www.w3.org/2000/svg" xmlns:xlink="http://www.w3.org/1999/xlink"><defs><path id="a" d="M0 .454h182.162v197.653H0z"/></defs><g fill="none" fill-rule="evenodd"><g transform="translate(169 58.546)"><mask id="b" fill="#fff"><use xlink:href="#a"/></mask><path d="M172.495 104.535a170.017 170.017 0 01-.879 4.533c-.069.234-.12.472-.15.715-.654 3.113-1.363 6.22-2.057 9.314-.383 1.707-.862 4-2.49 4.992-.93.565-3.587.36-3.36-1.235a1.027 1.027 0 00-.252-.841c.132-8.737-1.169-17.39-2.82-26.02.567-.086 1.086-.41 1.442-.944a9.54 9.54 0 01.212-.313 10.6 10.6 0 01.077-.102c.048-.058.106-.13.123-.148.065-.076.132-.151.2-.226.324-.356.683-.663 1.04-.984l.01-.01.003-.002c.082-.058.163-.118.246-.174a10.696 10.696 0 011.508-.865c.044-.021.09-.043.137-.062.135-.061.091-.043-.13.052.09-.113.51-.195.638-.238a10.606 10.606 0 011.315-.347c.1-.02.2-.036.298-.054-.003-.001-.007 0-.008-.002 0 0 .006 0 .01.002.024-.004.047-.01.072-.013.287-.05.033.019-.056.017.065.008.25-.01.421-.03a5.21 5.21 0 011.663.884c3.562 2.9 3.515 7.99 2.787 12.1m-11.212 19.763a73.035 73.035 0 01-.426 4.813 4.55 4.55 0 00-.236 1.915c-.243 1.663-.58 3.31-.957 4.947a47.123 47.123 0 01-5.693 11.789l-.025-.027c-2.854 3.262-6.217 6.097-9.69 8.699-6.52 4.885-13.28 9.474-20.046 14.006a664.006 664.006 0 01-12.112 7.92.987.987 0 00-.409.5c-1.325.828-2.692 1.579-4.148 2.168-5.437 2.197-11.212 1.196-16.55-.778-5.017-1.856-9.824-4.38-14.588-6.801-8.522-4.33-17.003-9.164-23.92-15.85-7.167-6.93-11.758-15.658-13.307-25.516-1.608-10.22-.255-20.7 1.146-30.86.667-4.842 1.37-9.704 1.898-14.58 4.798 2.555 9.913 3.123 13.707-2.78 1.774-2.76 2.925-5.86 3.617-9.093 2.744 1.8 5.757 2.758 9.073 1.854 3.22-.877 5.774-3.393 7.232-6.317 1.261-2.527 1.004-5.807 2.31-8.193 3.06 1.719 6.442 2.798 9.908 2.926 7.94.293 12.317-5.733 14.79-12.523 3.908 2.043 8.844 2.068 12.69-.2.25.629.537 1.242.86 1.84 1.491 4.483 5.443 8.04 10.013 9.386 2.99.88 6.142.729 8.986-.557.065-.03.132-.066.197-.097-.043 5.918 1.218 11.675 5.622 16.26 3.934 4.096 9.601 5.728 14.802 4.666l.047.244c.004.126.012.25.016.377.03.883.24 1.72.564 2.505.36 1.766.72 3.532 1.074 5.295 2.121 10.532 4.112 21.27 3.555 32.062m-58.766 66.836c-1.556 2.528-3.878 5.22-7.123 4.957-3.12-.254-4.815-3.378-6.049-5.964a.95.95 0 00.128-.48v-7.84c3.342 1.313 6.801 2.298 10.398 2.48.85.043 1.676.008 2.492-.062v6.416c0 .18.065.344.154.493m-66-67.791a.395.395 0 00-.132.089c-.086.093-.158.222-.147.353.003.038-.002.075-.003.113a.995.995 0 01-.029.107.926.926 0 01-.05.086 6.182 6.182 0 01-.114.116.51.51 0 00-.138.31l-.013-.002a.939.939 0 00-.91.018c-1.874 1.012-3.694-.704-4.836-2.065-1.343-1.603-2.269-3.577-3.218-5.425-1.98-3.86-3.703-8.162-3.096-12.583.475-3.46 2.471-7.194 6.102-8.083 2.962-.725 6.71.515 7.661 3.644a.922.922 0 00.762.67c-1.064 7.533-1.97 15.074-1.839 22.652M99.187 3.83a24.936 24.936 0 00-4.566-1.323c1.598.136 3.145.598 4.565 1.323m82.837 96.855c-.152-1.146-.474-2.216-.779-3.327-.395-1.438-.103-2.614.217-4.03 1.047-4.628-.444-9.534-3.867-12.812 3.086-7.248 1.283-16.171-4.568-21.53.052-1.364-.359-2.57-1.01-3.674a5.73 5.73 0 00-1.974-2.53 35.424 35.424 0 00-.88-.896 19.251 19.251 0 00-.478-.448c-.345-2.881-.708-5.818-1.38-8.6a24.782 24.782 0 00-.136-1.3c-.442-3.26-1.495-7.136-3.893-9.54-1.634-1.641-4.282-2.351-6.294-1.255-1.058-2.558-2.55-4.985-4.432-7.032-.976-1.535-2.233-2.88-3.873-3.892-2.35-1.45-5.077-1.596-7.519-.836-.484-3.513-2.808-6.705-6.26-7.962-3.984-1.452-8.647.266-11.083 3.63-2.258-2.875-4.825-5.711-8.376-6.871-2.74-.894-6.003-.628-8.306 1.126-.103-.098-.203-.202-.306-.296-.075-.07-.157-.127-.233-.194-2.467-4.545-7.215-7.731-12.47-7.95C88.486.229 83.22 3.529 80.55 8.374c-3.76-3.515-9.81-4.216-14.34-1.751-.594.323-1.15.709-1.672 1.136-.583.475-1.103 1.22-1.772 1.566-.938.483-1.832-.3-2.673-.683a10.755 10.755 0 00-2.454-.792c-3.222-.603-6.622.16-9.173 2.247-2.174 1.778-3.54 4.399-3.909 7.159a18.837 18.837 0 00-2.174 3.418c-4.202-4.243-12.313-3.768-15.45 1.63-.909 1.564-1.334 3.357-2.235 4.923-.397.69-.894 1.346-1.617 1.722-1.198.624-2.636.383-3.93.346-3.972-.116-7.005 2.28-8.276 6.003-1.25 3.664-.19 7.387 1.492 10.75.324.812.712 1.598 1.168 2.352-5.719 2.089-8.208 10.013-5.279 15.21.042.473.107.942.197 1.405-4.895 1.737-8.645 6.51-8.445 11.87C.21 82.31 4.315 86.96 9.443 88.29c-4.89 5.755-2.98 14.634.671 20.69 1.198 1.987 2.712 3.676 4.205 5.439 1.807 2.133 2.71 4.359 3.41 7.038 1.162 4.446 3.235 8.324 6.836 11.276 3.828 3.137 8.672 4.915 13.64 4.694.04-.002.067-.021.104-.026 1.664 6.25 4.508 12.105 8.716 17.238 6.205 7.568 14.554 13.092 23.064 17.748 4.391 2.402 8.887 4.618 13.405 6.775 1.338.639 2.697 1.269 4.074 1.86a1 1 0 00-.095.437v7.819c-.268.288-.398.709-.187 1.156 1.621 3.447 3.855 7.358 8.108 7.657 4.175.293 7.216-3.145 9.13-6.414.266-.453.13-.88-.16-1.162v-6.568c3.464-.671 6.651-2.246 9.678-4.26-.049-.035-.089-.083-.137-.121a659.916 659.916 0 0020.876-13.926c6.285-4.371 12.823-8.671 18.317-14.043.388-.38.743-.793 1.117-1.187.241-.044.473-.173.65-.42.23-.322.446-.652.668-.98.025-.028.051-.052.075-.08l-.015-.007a48.833 48.833 0 005.45-10.787c.054.022.11.033.163.056.154-.593.285-1.19.42-1.787.053-.166.112-.33.163-.496a.982.982 0 00.031-.33c.007-.031.016-.063.022-.094.097.042.195.084.315.096 4.15.398 7.98-1.532 10.934-4.324 3.095-2.926 6.015-7.15 6.587-11.448.134-1.01.115-2.038-.125-3.033-.283-1.172-1.218-2.265-.908-3.506.256-1.018 1.083-1.918 1.58-2.828a16.017 16.017 0 001.332-3.27c.596-2.098.751-4.324.466-6.486" fill="#231F20" mask="url(#b)"/></g><path d="M260.594 156.288c-6.06-2.61-12.81-3.045-19.132-1.115-1.227.375-.704 2.306.532 1.929a25.746 25.746 0 0114.549-.143c-3.795.878-7.608 1.749-11.291 2.979-4.011 1.34-7.875 3.29-10.633 6.58-.822.98.586 2.403 1.414 1.415 2.716-3.24 6.516-5.051 10.479-6.303 4.533-1.432 9.228-2.394 13.844-3.514.772-.187 1.047-1.48.238-1.828m46.621 6.297c-6.715-3.935-14.555-5.711-22.301-5.031a29.188 29.188 0 0111.256-3.24c1.275-.096 1.286-2.096 0-2a31.508 31.508 0 00-13.803 4.37c-.988.592-.281 2.03.672 1.846-.11.575.185 1.196.918 1.113 7.727-.882 15.534.735 22.248 4.669 1.114.652 2.12-1.077 1.01-1.727m-63.311-19.858c-5.254 1.32-10.039 4.292-13.533 8.433-.68.805.48 1.976 1.164 1.165a24.627 24.627 0 0112.806-8.01c1.028-.258.592-1.847-.437-1.588m63.05 3.665c-4.07-3.508-9.533-4.212-14.704-4.562-1.058-.072-1.053 1.575 0 1.646 4.688.318 9.835.89 13.54 4.08.8.69 1.97-.472 1.164-1.164m-11.624 60.059a.9.9 0 00-.453-.069 425.416 425.416 0 01-51.61 1.566c-.062-.002-.107.022-.162.027-1.463-3.094-2.34-6.423-2.23-9.898.948-.061 1.855.109 2.767.476.023.008.042.003.065.011.16.191.4.322.72.331a351.654 351.654 0 0052.651-2.359c-.4 3.303-.857 6.683-1.748 9.915m-16.7 18.484c-2.706 1.423-5.642 2.499-8.719 2.649-2.804.136-5.573-.435-8.173-1.468a26.46 26.46 0 01-3.566-1.759 129.445 129.445 0 0124.117-1.52 56.385 56.385 0 01-3.66 2.098m20.014-29.84c-.09-.39-.383-.698-.91-.633a351.841 351.841 0 01-53.17 2.437 1.04 1.04 0 00-.389-.275c-1.473-.593-2.97-.688-4.524-.402-.454.083-.7.55-.734.964-.524 6.458 2.246 12.592 6.055 17.659 3.752 4.99 8.52 9.535 14.175 12.293 5.756 2.807 11.985 3.229 17.931.735 3.077-1.291 5.951-3.085 8.66-5.024 2.526-1.807 4.913-3.835 6.851-6.276 4.664-5.875 5.69-13.379 6.558-20.599.057-.465-.178-.756-.503-.879m-19.721-10.985c-.085-.533-.751-.83-1.23-.698-.57.156-.784.695-.7 1.23.4 2.506-1.634 5.202-4.134 5.558-2.624.374-5.323-1.877-5.506-4.499-.09-1.278-2.09-1.287-2 0 .207 2.96 2.394 5.537 5.258 6.306 2.89.777 5.819-.647 7.365-3.132a6.895 6.895 0 00.947-4.765" fill="#231F20"/></g></svg>
